public/svgs/warning.svg

<svg width="24" height="24" viewBox="0 0 24 24" fill="none" xmlns="http://www.w3.org/2000/svg">
<path d="M12 2C6.47768 2 2 6.47768 2 12C2 17.5223 6.47768 22 12 22C17.5223 22 22 17.5223 22 12C22 6.47768 17.5223 2 12 2ZM11.2857 7.17857C11.2857 7.08036 11.3661 7 11.4643 7H12.5357C12.6339 7 12.7143 7.08036 12.7143 7.17857V13.25C12.7143 13.3482 12.6339 13.4286 12.5357 13.4286H11.4643C11.3661 13.4286 11.2857 13.3482 11.2857 13.25V7.17857ZM12 17C11.7196 16.9943 11.4527 16.8789 11.2564 16.6786C11.0601 16.4783 10.9502 16.209 10.9502 15.9286C10.9502 15.6481 11.0601 15.3789 11.2564 15.1786C11.4527 14.9783 11.7196 14.8629 12 14.8571C12.2804 14.8629 12.5473 14.9783 12.7436 15.1786C12.9399 15.3789 13.0498 15.6481 13.0498 15.9286C13.0498 16.209 12.9399 16.4783 12.7436 16.6786C12.5473 16.8789 12.2804 16.9943 12 17Z" fill="#7F7F7F"/>
</svg>

<svg width="24" height="24" fill="none" xmlns="http://www.w3.org/2000/svg"><path d="M12 2C6.478 2 2 6.478 2 12s4.478 10 10 10 10-4.478 10-10S17.522 2 12 2Zm-.714 5.179A.18.18 0 0 1 11.464 7h1.072a.18.18 0 0 1 .178.179v6.071a.18.18 0 0 1-.178.179h-1.072a.18.18 0 0 1-.178-.179V7.179ZM12 17a1.072 1.072 0 0 1 0-2.143A1.072 1.072 0 0 1 12 17Z" fill="#7F7F7F"/></svg>
